X:83
T:Shallow Brown (b)
M:C|
L:1/4
Q:1/4=3D80
K:CMIX
F|\
C>D FG |A G2 G|G>A GF|D3 D|
B>A G>F|D2  CD|F>C DF|C3 ||
